src/telerik-icons/solid/myspace.svg

<?xml version="1.0" encoding="utf-8"?>
<svg xmlns="http://www.w3.org/2000/svg" width="512" height="512" viewBox="0 0 512 512">
  <path d="M400 64c-44.2 0-80 35.8-80 80s35.8 80 80 80 80-35.8 80-80-35.8-80-80-80zm-176 64c-35.4 0-64 28.6-64 64s28.6 64 64 64 64-28.6 64-64-28.6-64-64-64zM80 192c-26.5 0-48 21.5-48 48s21.5 48 48 48 48-21.5 48-48-21.5-48-48-48zm320 64c-44.2 0-80 36.1-80 80.5V448h160V336.5c0-44.5-35.8-80.5-80-80.5zm-176 32c-35.4 0-64 31.5-64 70.3V448h128v-89.7c0-38.8-28.6-70.3-64-70.3zM80 320c-26.5 0-48 21.8-48 48.7V448h96v-79.3c0-26.9-21.5-48.7-48-48.7z"/>
</svg>

<?xml version="1.0" encoding="utf-8"?>
<!-- Generator: Adobe Illustrator 24.2.0, SVG Export Plug-In . SVG Version: 6.00 Build 0)  -->
<svg xmlns="http://www.w3.org/2000/svg" width="512" height="512" viewBox="0 0 512 512">
<path d="M400,64c-44.2,0-80,35.8-80,80s35.8,80,80,80s80-35.8,80-80S444.2,64,400,64z M224,128c-35.4,0-64,28.6-64,64s28.6,64,64,64
	s64-28.6,64-64S259.4,128,224,128z M80,192c-26.5,0-48,21.5-48,48s21.5,48,48,48s48-21.5,48-48S106.5,192,80,192z M400,256
	c-44.2,0-80,36.1-80,80.5V448h160V336.5C480,292,444.2,256,400,256z M224,288c-35.4,0-64,31.5-64,70.3V448h128v-89.7
	C288,319.5,259.4,288,224,288z M80,320c-26.5,0-48,21.8-48,48.7V448h96v-79.3C128,341.8,106.5,320,80,320L80,320z" />
</svg>
